assets/img/icons/duotone-icons/Devices/Router#1.svg

<?xml version="1.0" encoding="UTF-8"?>
<svg width="24px" height="24px" viewBox="0 0 24 24" version="1.1" xmlns="http://www.w3.org/2000/svg" xmlns:xlink="http://www.w3.org/1999/xlink">
    <!-- Generator: Sketch 52.2 (67145) - http://www.bohemiancoding.com/sketch -->
    <title>Stockholm-icons / Devices / Router#1</title>
    <desc>Created with Sketch.</desc>
    <g id="Stockholm-icons-/-Devices-/-Router#1" stroke="none" stroke-width="1" fill="none" fill-rule="evenodd">
        <rect id="bound" x="0" y="0" width="24" height="24"></rect>
        <path d="M15,15 L15,10 C15,9.44771525 15.4477153,9 16,9 C16.5522847,9 17,9.44771525 17,10 L17,15 L20,15 C21.1045695,15 22,15.8954305 22,17 L22,19 C22,20.1045695 21.1045695,21 20,21 L4,21 C2.8954305,21 2,20.1045695 2,19 L2,17 C2,15.8954305 2.8954305,15 4,15 L15,15 Z M5,17 C4.44771525,17 4,17.4477153 4,18 C4,18.5522847 4.44771525,19 5,19 L10,19 C10.5522847,19 11,18.5522847 11,18 C11,17.4477153 10.5522847,17 10,17 L5,17 Z" id="Combined-Shape" fill="#335EEA"></path>
        <path d="M20.5,7.7155722 L19.2133304,8.85714286 C18.425346,7.82897283 17.2569914,7.22292937 15.9947545,7.22292937 C14.7366498,7.22292937 13.571742,7.82497398 12.7836854,8.84737587 L11.5,7.70192243 C12.6016042,6.27273291 14.2349886,5.42857143 15.9947545,5.42857143 C17.7603123,5.42857143 19.3985009,6.27832502 20.5,7.7155722 Z M23.5,5.46053062 L22.1362873,6.57142857 C20.629466,4.78945909 18.4012066,3.73944576 15.9963045,3.73944576 C13.5947271,3.73944576 11.3692392,4.78653417 9.8623752,6.56427829 L8.5,5.45180053 C10.340077,3.28094376 13.0626024,2 15.9963045,2 C18.934073,2 21.6599771,3.28451636 23.5,5.46053062 Z" id="Combined-Shape" fill="#335EEA" opacity="0.3"></path>
    </g>
</svg>

<svg width="24" height="24" viewBox="0 0 24 24" xmlns="http://www.w3.org/2000/svg"><g fill="none" fill-rule="evenodd"><path d="M0 0h24v24H0z"/><path d="M15 15v-5a1 1 0 012 0v5h3a2 2 0 012 2v2a2 2 0 01-2 2H4a2 2 0 01-2-2v-2a2 2 0 012-2h11zM5 17a1 1 0 000 2h5a1 1 0 000-2H5z" fill="#335EEA"/><path d="M20.5 7.716l-1.287 1.141c-.788-1.028-1.956-1.634-3.218-1.634-1.258 0-2.423.602-3.211 1.624L11.5 7.702c1.102-1.43 2.735-2.273 4.495-2.273 1.765 0 3.404.85 4.505 2.287zm3-2.255l-1.364 1.11a8.015 8.015 0 00-6.14-2.832 8.015 8.015 0 00-6.134 2.825L8.5 5.452A9.8 9.8 0 0115.996 2 9.8 9.8 0 0123.5 5.46z" fill="#335EEA" opacity=".3"/></g></svg>
